img/svg/android.svg

<svg xmlns="http://www.w3.org/2000/svg" preserveAspectRatio="xMidYMid" viewBox="0 0 32 44"><defs><style>.cls-2 { fill: #d1d5d7; }</style></defs><path d="M13 7c-.553 0-1 .448-1 1 0 .553.447 1 1 1 .553 0 1-.447 1-1 0-.552-.447-1-1-1m6 0c-.553 0-1 .448-1 1 0 .553.447 1 1 1 .553 0 1-.447 1-1 0-.552-.447-1-1-1m10 4c-.354 0-.686.072-1 .185v-.185h-.079c-.372-3.11-2.452-5.8-5.445-7.409l1.356-2.036-.016-.01c.107-.159.184-.339.184-.545 0-.552-.447-1-1-1-.347 0-.637.188-.816.455l-.016-.01-1.554 2.33c-1.421-.495-2.976-.775-4.614-.775s-3.193.28-4.614.775l-1.554-2.33-.016.01c-.179-.267-.469-.455-.816-.455-.553 0-1 .448-1 1 0 .206.077.386.184.545l-.016.01 1.357 2.036c-2.994 1.609-5.074 4.299-5.446 7.409h-.079v.185c-.315-.113-.648-.185-1-.185-1.656 0-3 1.344-3 3v14c0 1.657 1.344 3 3 3 .352 0 .685-.072 1-.184v3.184c0 1.103.896 2 2 2h2v5c0 1.657 1.344 3 3 3s3-1.343 3-3v-5h4v5c0 1.657 1.343 3 3 3s3-1.343 3-3v-5h2c1.103 0 2-.897 2-2v-3.184c.314.112.646.184 1 .184 1.657 0 3-1.343 3-3v-14c0-1.656-1.343-3-3-3m-25 17c0 .552-.447 1-1 1-.553 0-1-.448-1-1v-14c0-.552.447-1 1-1 .553 0 1 .448 1 1v14zm12-24c5.099 0 9.297 3.057 9.914 7h-19.828c.617-3.943 4.815-7 9.914-7m-4 37c0 .553-.447 1-1 1-.553 0-1-.447-1-1v-5h2v5zm10 0c0 .553-.447 1-1 1-.553 0-1-.447-1-1v-5h2v5zm4-7h-20v-21h20v21zm4-6c0 .552-.447 1-1 1-.553 0-1-.448-1-1v-14c0-.552.447-1 1-1 .553 0 1 .448 1 1v14z" id="path-1" class="cls-2" fill-rule="evenodd"/></svg>

<svg xmlns="http://www.w3.org/2000/svg" xmlns:xlink="http://www.w3.org/1999/xlink" preserveAspectRatio="xMidYMid"  viewBox="0 0 32 44">
  <defs>
    <style>

      .cls-2 {
        fill: #d1d5d7;
      }
    </style>
  </defs>
  <path d="M13.000,7.000 C12.447,7.000 12.000,7.448 12.000,8.000 C12.000,8.553 12.447,9.000 13.000,9.000 C13.553,9.000 14.000,8.553 14.000,8.000 C14.000,7.448 13.553,7.000 13.000,7.000 M19.000,7.000 C18.447,7.000 18.000,7.448 18.000,8.000 C18.000,8.553 18.447,9.000 19.000,9.000 C19.553,9.000 20.000,8.553 20.000,8.000 C20.000,7.448 19.553,7.000 19.000,7.000 M29.000,11.000 C28.646,11.000 28.314,11.072 28.000,11.185 C28.000,11.185 28.000,11.000 28.000,11.000 C28.000,11.000 27.921,11.000 27.921,11.000 C27.549,7.890 25.469,5.200 22.476,3.591 C22.476,3.591 23.832,1.555 23.832,1.555 C23.832,1.555 23.816,1.545 23.816,1.545 C23.923,1.386 24.000,1.206 24.000,1.000 C24.000,0.448 23.553,-0.000 23.000,-0.000 C22.653,-0.000 22.363,0.188 22.184,0.455 C22.184,0.455 22.168,0.445 22.168,0.445 C22.168,0.445 20.614,2.775 20.614,2.775 C19.193,2.280 17.638,2.000 16.000,2.000 C14.362,2.000 12.807,2.280 11.386,2.775 C11.386,2.775 9.832,0.445 9.832,0.445 C9.832,0.445 9.816,0.455 9.816,0.455 C9.637,0.188 9.347,-0.000 9.000,-0.000 C8.447,-0.000 8.000,0.448 8.000,1.000 C8.000,1.206 8.077,1.386 8.184,1.545 C8.184,1.545 8.168,1.555 8.168,1.555 C8.168,1.555 9.525,3.591 9.525,3.591 C6.531,5.200 4.451,7.890 4.079,11.000 C4.079,11.000 4.000,11.000 4.000,11.000 C4.000,11.000 4.000,11.185 4.000,11.185 C3.685,11.072 3.352,11.000 3.000,11.000 C1.344,11.000 -0.000,12.344 -0.000,14.000 C-0.000,14.000 -0.000,28.000 -0.000,28.000 C-0.000,29.657 1.344,31.000 3.000,31.000 C3.352,31.000 3.685,30.928 4.000,30.816 C4.000,30.816 4.000,34.000 4.000,34.000 C4.000,35.103 4.896,36.000 6.000,36.000 C6.000,36.000 8.000,36.000 8.000,36.000 C8.000,36.000 8.000,41.000 8.000,41.000 C8.000,42.657 9.344,44.000 11.000,44.000 C12.656,44.000 14.000,42.657 14.000,41.000 C14.000,41.000 14.000,36.000 14.000,36.000 C14.000,36.000 18.000,36.000 18.000,36.000 C18.000,36.000 18.000,41.000 18.000,41.000 C18.000,42.657 19.343,44.000 21.000,44.000 C22.657,44.000 24.000,42.657 24.000,41.000 C24.000,41.000 24.000,36.000 24.000,36.000 C24.000,36.000 26.000,36.000 26.000,36.000 C27.103,36.000 28.000,35.103 28.000,34.000 C28.000,34.000 28.000,30.816 28.000,30.816 C28.314,30.928 28.646,31.000 29.000,31.000 C30.657,31.000 32.000,29.657 32.000,28.000 C32.000,28.000 32.000,14.000 32.000,14.000 C32.000,12.344 30.657,11.000 29.000,11.000 M4.000,28.000 C4.000,28.552 3.553,29.000 3.000,29.000 C2.447,29.000 2.000,28.552 2.000,28.000 C2.000,28.000 2.000,14.000 2.000,14.000 C2.000,13.448 2.447,13.000 3.000,13.000 C3.553,13.000 4.000,13.448 4.000,14.000 C4.000,14.000 4.000,28.000 4.000,28.000 ZM16.000,4.000 C21.099,4.000 25.297,7.057 25.914,11.000 C25.914,11.000 6.086,11.000 6.086,11.000 C6.703,7.057 10.901,4.000 16.000,4.000 M12.000,41.000 C12.000,41.553 11.553,42.000 11.000,42.000 C10.447,42.000 10.000,41.553 10.000,41.000 C10.000,41.000 10.000,36.000 10.000,36.000 C10.000,36.000 12.000,36.000 12.000,36.000 C12.000,36.000 12.000,41.000 12.000,41.000 ZM22.000,41.000 C22.000,41.553 21.553,42.000 21.000,42.000 C20.447,42.000 20.000,41.553 20.000,41.000 C20.000,41.000 20.000,36.000 20.000,36.000 C20.000,36.000 22.000,36.000 22.000,36.000 C22.000,36.000 22.000,41.000 22.000,41.000 ZM26.000,34.000 C26.000,34.000 6.000,34.000 6.000,34.000 C6.000,34.000 6.000,13.000 6.000,13.000 C6.000,13.000 26.000,13.000 26.000,13.000 C26.000,13.000 26.000,34.000 26.000,34.000 ZM30.000,28.000 C30.000,28.552 29.553,29.000 29.000,29.000 C28.447,29.000 28.000,28.552 28.000,28.000 C28.000,28.000 28.000,14.000 28.000,14.000 C28.000,13.448 28.447,13.000 29.000,13.000 C29.553,13.000 30.000,13.448 30.000,14.000 C30.000,14.000 30.000,28.000 30.000,28.000 Z" id="path-1" class="cls-2" fill-rule="evenodd"/>
</svg>
